public/images/catalog-filter/blog/forget.svg

<svg xmlns="http://www.w3.org/2000/svg" width="1554" height="408" fill="none"><mask id="a" width="1513" height="392" x="0" y="0" maskUnits="userSpaceOnUse" style="mask-type:alpha"><rect width="1513" height="392" fill="#F6F6F6" rx="19"/></mask><g mask="url(#a)"><rect width="1513" height="392" fill="#F6F6F6" rx="19"/><path fill="#EBEBEB" d="M222.08 170.616H120.908l44.964-69.106V80.627A5.617 5.617 0 0 1 171.494 75a5.62 5.62 0 0 1 5.623 5.627v20.902l44.963 69.106zm-73.075 33.741a5.62 5.62 0 0 1 5.623-5.627 5.62 5.62 0 0 1 5.622 5.627v16.88h22.492v-16.88a5.62 5.62 0 0 1 5.623-5.627 5.62 5.62 0 0 1 5.622 5.627v16.88h28.115V181.87H120.93v39.367h28.114v-16.88zM87.173 328.106c0-3.094-2.532-5.627-5.623-5.627s-5.623 2.533-5.623 5.627v28.133h11.246zm174.252-5.627c-3.091 0-5.623 2.533-5.623 5.627v28.133h11.246v-28.133c0-3.094-2.531-5.627-5.623-5.627m-89.948 151.885c-15.497 0-28.114 12.626-28.114 28.133V570h56.207v-67.503c0-15.507-12.617-28.133-28.114-28.133zm-95.548 95.613h56.208v-50.623H75.929zm163.004-213.759H104.026V238.097c0-3.093 2.531-5.626 5.622-5.626h123.664c3.092 0 5.623 2.533 5.623 5.626zm-22.491-61.874c0-24.808-20.173-44.995-44.964-44.995-24.79 0-44.963 20.187-44.963 44.995s20.173 44.994 44.963 44.994 44.964-20.187 44.964-44.994m-11.246 0c0 18.62-15.129 33.741-33.718 33.741-18.607 0-33.717-15.14-33.717-33.741 0-18.621 15.129-33.741 33.717-33.741 18.608 0 33.718 15.14 33.718 33.741m-28.114-16.881a5.617 5.617 0 0 0-5.623-5.626 5.617 5.617 0 0 0-5.623 5.626v14.56l-9.603 9.61c-2.203 2.204-2.203 5.762 0 7.947a5.59 5.59 0 0 0 3.981 1.644 5.62 5.62 0 0 0 3.98-1.644l11.246-11.253a5.6 5.6 0 0 0 1.642-3.983zM75.91 395.584h22.492v-11.253a5.62 5.62 0 0 1 5.622-5.627 5.62 5.62 0 0 1 5.623 5.627v11.253h22.492v-11.253a5.617 5.617 0 0 1 5.622-5.627 5.62 5.62 0 0 1 5.623 5.627v11.253h22.492v-11.253a5.617 5.617 0 0 1 5.622-5.627 5.62 5.62 0 0 1 5.623 5.627v11.253h22.492v-11.253a5.617 5.617 0 0 1 5.622-5.627 5.62 5.62 0 0 1 5.623 5.627v11.253h22.492v-11.253a5.617 5.617 0 0 1 5.622-5.627 5.62 5.62 0 0 1 5.623 5.627v11.253h22.492v-28.133l-191.14.038v28.134zm134.907 174.372h56.208v-50.623h-56.208zM75.91 406.84h191.12v101.242h-56.208v-5.627c0-21.714-17.641-39.367-39.34-39.367s-39.341 17.653-39.341 39.367v5.627H75.934V406.84zm157.38 33.741a5.62 5.62 0 0 0 5.622 5.627 5.62 5.62 0 0 0 5.623-5.627v-11.253a5.62 5.62 0 0 0-5.623-5.627 5.62 5.62 0 0 0-5.622 5.627zm-33.718 0a5.62 5.62 0 0 0 5.623 5.627 5.617 5.617 0 0 0 5.622-5.627v-11.253a5.617 5.617 0 0 0-5.622-5.627 5.62 5.62 0 0 0-5.623 5.627zm-33.718 0a5.62 5.62 0 0 0 5.623 5.627 5.62 5.62 0 0 0 5.623-5.627v-11.253a5.62 5.62 0 0 0-5.623-5.627 5.62 5.62 0 0 0-5.623 5.627zm-33.717 0a5.617 5.617 0 0 0 5.622 5.627 5.62 5.62 0 0 0 5.623-5.627v-11.253a5.62 5.62 0 0 0-5.623-5.627 5.617 5.617 0 0 0-5.622 5.627zm-33.718 0a5.62 5.62 0 0 0 5.623 5.627 5.62 5.62 0 0 0 5.622-5.627v-11.253a5.62 5.62 0 0 0-5.622-5.627 5.62 5.62 0 0 0-5.623 5.627zM42.21 418.074c0-3.093-2.531-5.626-5.623-5.626H8.474c-3.092 0-5.623 2.533-5.623 5.626v22.507H-19.64v-22.507c0-3.093-2.532-5.626-5.623-5.626h-28.114c-3.092 0-5.623 2.533-5.623 5.626v50.624H64.664v-28.134H42.172v-22.507zm-101.172 61.875H64.703v90.01l-118.04.039c-3.091 0-5.622-2.533-5.622-5.627zm89.948 39.367a5.62 5.62 0 0 0 5.623 5.627 5.62 5.62 0 0 0 5.623-5.627v-11.253a5.62 5.62 0 0 0-5.623-5.627 5.62 5.62 0 0 0-5.623 5.627zm-33.717 0a5.62 5.62 0 0 0 5.622 5.627 5.62 5.62 0 0 0 5.623-5.627v-11.253a5.62 5.62 0 0 0-5.623-5.627 5.62 5.62 0 0 0-5.622 5.627zm-33.718 0a5.62 5.62 0 0 0 5.623 5.627 5.62 5.62 0 0 0 5.622-5.627v-11.253a5.62 5.62 0 0 0-5.622-5.627 5.62 5.62 0 0 0-5.623 5.627zm432.824-106.869h-28.115c-3.091 0-5.622 2.533-5.622 5.626v22.507h-22.492v-22.507c0-3.093-2.531-5.626-5.623-5.626H306.41c-3.091 0-5.623 2.533-5.623 5.626v22.507h-22.491v28.134H401.96v-50.623c0-3.094-2.531-5.627-5.623-5.627zm-118.04 67.502H402v84.382c0 3.094-2.531 5.627-5.623 5.627h-118.04zm89.948 39.368a5.62 5.62 0 0 0 5.623 5.627 5.62 5.62 0 0 0 5.623-5.627v-11.253a5.62 5.62 0 0 0-5.623-5.627 5.62 5.62 0 0 0-5.623 5.627zm-33.717 0a5.617 5.617 0 0 0 5.622 5.627 5.62 5.62 0 0 0 5.623-5.627v-11.253a5.62 5.62 0 0 0-5.623-5.627 5.617 5.617 0 0 0-5.622 5.627zm-33.718 0a5.62 5.62 0 0 0 5.623 5.627 5.62 5.62 0 0 0 5.622-5.627v-11.253a5.62 5.62 0 0 0-5.622-5.627 5.62 5.62 0 0 0-5.623 5.627z"/><path fill="url(#b)" fill-rule="evenodd" d="M219.842 143.197c2.579 4.22 7.406 7.061 12.936 7.061 8.244 0 14.927-6.312 14.927-14.098 0-1.581-.276-3.101-.784-4.52 4.188 2.068 8.952 3.238 14.004 3.238 16.723 0 30.28-12.815 30.28-28.623 0-15.807-13.557-28.622-30.28-28.622-6.851 0-13.171 2.15-18.245 5.778C235.35 65.049 216.688 52 194.823 52c-19.479 0-36.416 10.356-45.063 25.599-5.113-3.73-11.523-5.948-18.481-5.948-16.723 0-30.279 12.815-30.279 28.623s13.556 28.622 30.279 28.622c6.805 0 13.085-2.121 18.141-5.703 8.537 15.576 25.665 26.209 45.403 26.209 9.087 0 17.621-2.254 25.019-6.206" clip-rule="evenodd"/></g><g fill-rule="evenodd" clip-path="url(#c)" clip-rule="evenodd"><path fill="url(#d)" d="M1327.64 236.059c3.71 6.37 10.81 10.677 18.96 10.677 12 0 21.72-9.327 21.72-20.832 0-2.542-.47-4.977-1.34-7.229 6.35 3.254 13.62 5.103 21.36 5.103 24.69 0 44.71-18.845 44.71-42.09s-20.02-42.091-44.71-42.091c-10.04 0-19.3 3.11-26.76 8.362-10.93-26.775-38.49-45.775-70.76-45.775-28.9 0-54.02 15.243-66.81 37.662-7.55-5.487-17.02-8.752-27.3-8.752-24.69 0-44.71 18.845-44.71 42.091 0 23.245 20.02 42.09 44.71 42.09 10.13 0 19.46-3.167 26.96-8.507 12.68 22.75 37.99 38.267 67.15 38.267 13.36 0 25.92-3.257 36.82-8.976"/><path fill="url(#e)" d="M1450.64 145.197c2.58 4.22 7.4 7.061 12.93 7.061 8.25 0 14.93-6.312 14.93-14.098 0-1.581-.28-3.101-.78-4.52 4.18 2.068 8.95 3.238 14 3.238 16.72 0 30.28-12.815 30.28-28.623 0-15.807-13.56-28.622-30.28-28.622-6.85 0-13.17 2.15-18.25 5.778-7.32-18.362-25.99-31.41-47.85-31.41-19.48 0-36.42 10.356-45.07 25.599-5.11-3.73-11.52-5.948-18.48-5.948-16.72 0-30.28 12.815-30.28 28.623s13.56 28.622 30.28 28.622c6.81 0 13.09-2.121 18.14-5.703 8.54 15.576 25.67 26.209 45.41 26.209 9.09 0 17.62-2.254 25.02-6.206"/></g><path fill="#EBEBEB" d="M1349.56 123c-.55-.03-1.09.027-1.61.169a35.86 35.86 0 0 0-19.3 12.773 35.9 35.9 0 0 0-7.5 21.916c0 16.658 11.45 30.672 26.87 34.654v8.812c-9.92 15.472-32.13 25.809-52.91 38.857-10.61 6.643-20.83 14.133-28.49 23.928a58.86 58.86 0 0 0-12.62 37.23c0 20.216 5.8 34.875 12.23 44.805h172.47c6.45-9.93 12.28-24.572 12.28-44.805a58.82 58.82 0 0 0-12.67-37.23c-7.65-9.795-17.85-17.285-28.44-23.928-20.76-13.031-42.97-23.351-52.9-38.806v-7.677a35.77 35.77 0 0 0 21.73-7.412 35.84 35.84 0 0 0 12.76-19.108c2.25-4.389-3.18-8.676-6.9-5.457a22.3 22.3 0 0 1-11.46 4.943c-4.2.525-8.48-.163-12.31-1.982a22.34 22.34 0 0 1-9.33-8.287 22.3 22.3 0 0 1-3.44-12.009c-.16-5.321 2.13-10.388 5.04-14.167 2.54-3.288.12-7.084-3.5-7.219m-82.13 232.125a13.52 13.52 0 0 0-9.46 3.983 13.56 13.56 0 0 0-3.95 9.489v17.895a4.49 4.49 0 0 0 1.29 3.175 4.5 4.5 0 0 0 3.16 1.333h188.03c.59.002 1.18-.113 1.72-.339a4.5 4.5 0 0 0 1.47-.976 4.52 4.52 0 0 0 1.31-3.193v-17.895a13.59 13.59 0 0 0-3.96-9.501 13.54 13.54 0 0 0-9.49-3.971z"/><path fill="url(#f)" fill-rule="evenodd" d="M1456.24 399.062c3.09 5.333 9 8.938 15.79 8.938 9.98 0 18.08-7.807 18.08-17.438 0-2.128-.4-4.166-1.12-6.051 5.28 2.724 11.34 4.271 17.78 4.271 20.56 0 37.23-15.774 37.23-35.232s-16.67-35.232-37.23-35.232c-8.35 0-16.06 2.603-22.27 6.999-9.11-22.413-32.05-38.317-58.92-38.317-24.06 0-44.98 12.759-55.63 31.526-6.28-4.593-14.17-7.326-22.72-7.326-20.56 0-37.23 15.774-37.23 35.232 0 19.459 16.67 35.233 37.23 35.233 8.43 0 16.2-2.651 22.44-7.121 10.56 19.043 31.63 32.032 55.91 32.032 11.13 0 21.58-2.727 30.66-7.514" clip-rule="evenodd"/><path fill="url(#g)" fill-rule="evenodd" d="M1558.72 323.107c2.14 3.522 6.15 5.893 10.75 5.893 6.84 0 12.4-5.267 12.4-11.765 0-1.32-.23-2.588-.66-3.773 3.48 1.727 7.44 2.703 11.64 2.703 13.89 0 25.15-10.694 25.15-23.887s-11.26-23.887-25.15-23.887c-5.69 0-10.94 1.796-15.16 4.822C1571.6 257.89 1556.1 247 1537.94 247c-16.18 0-30.25 8.643-37.44 21.364-4.24-3.113-9.57-4.964-15.35-4.964-13.89 0-25.15 10.695-25.15 23.887s11.26 23.887 25.15 23.887c5.65 0 10.87-1.771 15.07-4.76 7.09 12.999 21.32 21.873 37.72 21.873 7.55 0 14.64-1.881 20.78-5.18" clip-rule="evenodd"/><defs><linearGradient id="b" x1="196.102" x2="196.102" y1="123.953" y2="52" gradientUnits="userSpaceOnUse"><stop stop-color="#fff" stop-opacity="0"/><stop offset="1" stop-color="#fff"/></linearGradient><linearGradient id="d" x1="1292.52" x2="1292.52" y1="208.038" y2="102.184" gradientUnits="userSpaceOnUse"><stop stop-color="#fff" stop-opacity="0"/><stop offset="1" stop-color="#fff"/></linearGradient><linearGradient id="e" x1="1426.9" x2="1426.9" y1="125.953" y2="54" gradientUnits="userSpaceOnUse"><stop stop-color="#fff" stop-opacity="0"/><stop offset="1" stop-color="#fff"/></linearGradient><linearGradient id="f" x1="1427" x2="1427" y1="375.607" y2="287" gradientUnits="userSpaceOnUse"><stop stop-color="#fff" stop-opacity="0"/><stop offset="1" stop-color="#fff"/></linearGradient><linearGradient id="g" x1="1539" x2="1539" y1="307.048" y2="247" gradientUnits="userSpaceOnUse"><stop stop-color="#fff" stop-opacity="0"/><stop offset="1" stop-color="#fff"/></linearGradient><clipPath id="c"><path fill="#fff" d="M1152 54h370v154h-370z"/></clipPath></defs></svg>

<svg width="1554" height="408" viewBox="0 0 1554 408" fill="none" xmlns="http://www.w3.org/2000/svg">
<mask id="mask0_2434_1132" style="mask-type:alpha" maskUnits="userSpaceOnUse" x="0" y="0" width="1513" height="392">
<rect width="1513" height="392" rx="19" fill="#F6F6F6"/>
</mask>
<g mask="url(#mask0_2434_1132)">
<rect width="1513" height="392" rx="19" fill="#F6F6F6"/>
<path d="M222.08 170.616H120.908L165.872 101.51V80.6266C165.872 77.5135 168.383 75 171.494 75C174.605 75 177.117 77.5136 177.117 80.6266V101.529L222.08 170.635V170.616ZM149.005 204.357C149.005 201.244 151.517 198.73 154.628 198.73C157.738 198.73 160.25 201.244 160.25 204.357V221.237H182.742V204.357C182.742 201.244 185.254 198.73 188.365 198.73C191.475 198.73 193.987 201.244 193.987 204.357V221.237H222.102V181.87H120.93V221.237H149.044V204.357H149.005ZM87.1728 328.106C87.1728 325.012 84.6415 322.479 81.55 322.479C78.4585 322.479 75.9273 325.012 75.9273 328.106V356.239H87.1728V328.106ZM261.425 322.479C258.334 322.479 255.802 325.012 255.802 328.106V356.239H267.048V328.106C267.048 325.012 264.517 322.479 261.425 322.479ZM171.477 474.364C155.98 474.364 143.363 486.99 143.363 502.497V570H199.57V502.497C199.57 486.99 186.953 474.364 171.456 474.364H171.477ZM75.9293 569.977H132.137V519.354H75.9293V569.977ZM238.933 356.218H104.026V238.097C104.026 235.004 106.557 232.471 109.648 232.471H233.312C236.404 232.471 238.935 235.004 238.935 238.097L238.933 356.218ZM216.442 294.344C216.442 269.536 196.269 249.349 171.478 249.349C146.688 249.349 126.515 269.536 126.515 294.344C126.515 319.151 146.688 339.338 171.478 339.338C196.269 339.338 216.442 319.151 216.442 294.344ZM205.196 294.344C205.196 312.964 190.067 328.085 171.478 328.085C152.871 328.085 137.761 312.945 137.761 294.344C137.761 275.723 152.89 260.603 171.478 260.603C190.086 260.603 205.196 275.743 205.196 294.344ZM177.082 277.463C177.082 274.35 174.57 271.837 171.459 271.837C168.348 271.837 165.836 274.35 165.836 277.463V292.023L156.233 301.633C154.03 303.837 154.03 307.395 156.233 309.58C157.335 310.682 158.764 311.224 160.214 311.224C161.643 311.224 163.093 310.682 164.194 309.58L175.44 298.327C176.502 297.263 177.082 295.852 177.082 294.344L177.082 277.463ZM75.91 395.584H98.4015V384.331C98.4015 381.218 100.913 378.704 104.024 378.704C107.135 378.704 109.647 381.218 109.647 384.331V395.584H132.139V384.331C132.139 381.218 134.65 378.704 137.761 378.704C140.872 378.704 143.384 381.218 143.384 384.331V395.584H165.876V384.331C165.876 381.218 168.387 378.704 171.498 378.704C174.609 378.704 177.121 381.218 177.121 384.331V395.584H199.613V384.331C199.613 381.218 202.124 378.704 205.235 378.704C208.346 378.704 210.858 381.218 210.858 384.331V395.584H233.35V384.331C233.35 381.218 235.861 378.704 238.972 378.704C242.083 378.704 244.595 381.218 244.595 384.331V395.584H267.087V367.451L75.9466 367.489V395.623L75.91 395.584ZM210.817 569.956H267.025V519.333H210.817V569.956ZM75.91 406.84H267.03V508.082H210.822V502.455C210.822 480.741 193.181 463.088 171.482 463.088C149.783 463.088 132.141 480.741 132.141 502.455V508.082H75.9337V406.84H75.91ZM233.29 440.581C233.29 443.694 235.802 446.208 238.912 446.208C242.023 446.208 244.535 443.694 244.535 440.581V429.328C244.535 426.215 242.023 423.701 238.912 423.701C235.802 423.701 233.29 426.215 233.29 429.328V440.581ZM199.572 440.581C199.572 443.694 202.084 446.208 205.195 446.208C208.306 446.208 210.817 443.694 210.817 440.581V429.328C210.817 426.215 208.306 423.701 205.195 423.701C202.084 423.701 199.572 426.215 199.572 429.328V440.581ZM165.854 440.581C165.854 443.694 168.366 446.208 171.477 446.208C174.588 446.208 177.1 443.694 177.1 440.581V429.328C177.1 426.215 174.588 423.701 171.477 423.701C168.366 423.701 165.854 426.215 165.854 429.328V440.581ZM132.137 440.581C132.137 443.694 134.648 446.208 137.759 446.208C140.87 446.208 143.382 443.694 143.382 440.581V429.328C143.382 426.215 140.87 423.701 137.759 423.701C134.648 423.701 132.137 426.215 132.137 429.328V440.581ZM98.4188 440.581C98.4188 443.694 100.931 446.208 104.042 446.208C107.152 446.208 109.664 443.694 109.664 440.581V429.328C109.664 426.215 107.152 423.701 104.042 423.701C100.931 423.701 98.4188 426.215 98.4188 429.328V440.581ZM42.211 418.074C42.211 414.981 39.6798 412.448 36.5883 412.448H8.47404C5.38244 412.448 2.85128 414.981 2.85128 418.074V440.581H-19.6402V418.074C-19.6402 414.981 -22.1715 412.448 -25.263 412.448H-53.3772C-56.4688 412.448 -59 414.981 -59 418.074V468.698H64.664V440.564H42.1725V418.057L42.211 418.074ZM-58.9609 479.949H64.7031V569.959L-53.3367 569.998C-56.4283 569.998 -58.9594 567.465 -58.9594 564.371L-58.9609 479.949ZM30.9873 519.316C30.9873 522.429 33.4992 524.943 36.6101 524.943C39.721 524.943 42.2328 522.429 42.2328 519.316V508.063C42.2328 504.95 39.7209 502.436 36.6101 502.436C33.4991 502.436 30.9873 504.95 30.9873 508.063V519.316ZM-2.73042 519.316C-2.73042 522.429 -0.218506 524.943 2.89234 524.943C6.00328 524.943 8.51509 522.429 8.51509 519.316V508.063C8.51509 504.95 6.00318 502.436 2.89234 502.436C-0.218605 502.436 -2.73042 504.95 -2.73042 508.063V519.316ZM-36.4481 519.316C-36.4481 522.429 -33.9362 524.943 -30.8254 524.943C-27.7145 524.943 -25.2026 522.429 -25.2026 519.316V508.063C-25.2026 504.95 -27.7145 502.436 -30.8254 502.436C-33.9362 502.436 -36.4481 504.95 -36.4481 508.063V519.316ZM396.376 412.447H368.261C365.17 412.447 362.639 414.98 362.639 418.073V440.58H340.147V418.073C340.147 414.98 337.616 412.447 334.524 412.447H306.41C303.319 412.447 300.787 414.98 300.787 418.073V440.58H278.296V468.714H401.96V418.091C401.96 414.997 399.429 412.464 396.337 412.464L396.376 412.447ZM278.336 479.949H402V564.331C402 567.425 399.469 569.958 396.377 569.958H278.337L278.336 479.949ZM368.284 519.317C368.284 522.43 370.796 524.944 373.907 524.944C377.018 524.944 379.53 522.43 379.53 519.317V508.064C379.53 504.951 377.018 502.437 373.907 502.437C370.796 502.437 368.284 504.951 368.284 508.064V519.317ZM334.567 519.317C334.567 522.43 337.078 524.944 340.189 524.944C343.3 524.944 345.812 522.43 345.812 519.317V508.064C345.812 504.951 343.3 502.437 340.189 502.437C337.078 502.437 334.567 504.951 334.567 508.064V519.317ZM300.849 519.317C300.849 522.43 303.361 524.944 306.472 524.944C309.582 524.944 312.094 522.43 312.094 519.317V508.064C312.094 504.951 309.582 502.437 306.472 502.437C303.361 502.437 300.849 504.951 300.849 508.064V519.317Z" fill="#EBEBEB"/>
<path fill-rule="evenodd" clip-rule="evenodd" d="M219.842 143.197C222.421 147.417 227.248 150.258 232.778 150.258C241.022 150.258 247.705 143.946 247.705 136.16C247.705 134.579 247.429 133.059 246.921 131.64C251.109 133.708 255.873 134.878 260.925 134.878C277.648 134.878 291.205 122.063 291.205 106.255C291.205 90.4475 277.648 77.6326 260.925 77.6326C254.074 77.6326 247.754 79.7838 242.68 83.4107C235.35 65.0494 216.688 52.0001 194.823 52.0001C175.344 52.0001 158.407 62.3568 149.76 77.5995C144.647 73.8701 138.237 71.6517 131.279 71.6517C114.556 71.6517 101 84.4666 101 100.275C101 116.083 114.556 128.897 131.279 128.897C138.084 128.897 144.364 126.776 149.42 123.194C157.957 138.77 175.085 149.403 194.823 149.403C203.91 149.403 212.444 147.149 219.842 143.197Z" fill="url(#paint0_linear_2434_1132)"/>
</g>
<g clip-path="url(#clip0_2434_1132)">
<path fill-rule="evenodd" clip-rule="evenodd" d="M1327.64 236.059C1331.35 242.429 1338.45 246.736 1346.6 246.736C1358.6 246.736 1368.32 237.409 1368.32 225.904C1368.32 223.362 1367.85 220.927 1366.98 218.675C1373.33 221.929 1380.6 223.778 1388.34 223.778C1413.03 223.778 1433.05 204.933 1433.05 181.688C1433.05 158.442 1413.03 139.597 1388.34 139.597C1378.3 139.597 1369.04 142.707 1361.58 147.959C1350.65 121.184 1323.09 102.184 1290.82 102.184C1261.92 102.184 1236.8 117.427 1224.01 139.846C1216.46 134.359 1206.99 131.094 1196.71 131.094C1172.02 131.094 1152 149.939 1152 173.185C1152 196.43 1172.02 215.275 1196.71 215.275C1206.84 215.275 1216.17 212.108 1223.67 206.768C1236.35 229.518 1261.66 245.035 1290.82 245.035C1304.18 245.035 1316.74 241.778 1327.64 236.059Z" fill="url(#paint1_linear_2434_1132)"/>
<path fill-rule="evenodd" clip-rule="evenodd" d="M1450.64 145.197C1453.22 149.417 1458.04 152.258 1463.57 152.258C1471.82 152.258 1478.5 145.946 1478.5 138.16C1478.5 136.579 1478.22 135.059 1477.72 133.64C1481.9 135.708 1486.67 136.878 1491.72 136.878C1508.44 136.878 1522 124.063 1522 108.255C1522 92.4475 1508.44 79.6326 1491.72 79.6326C1484.87 79.6326 1478.55 81.7838 1473.47 85.4107C1466.15 67.0494 1447.48 54.0001 1425.62 54.0001C1406.14 54.0001 1389.2 64.3568 1380.55 79.5995C1375.44 75.8701 1369.03 73.6517 1362.07 73.6517C1345.35 73.6517 1331.79 86.4666 1331.79 102.275C1331.79 118.083 1345.35 130.897 1362.07 130.897C1368.88 130.897 1375.16 128.776 1380.21 125.194C1388.75 140.77 1405.88 151.403 1425.62 151.403C1434.71 151.403 1443.24 149.149 1450.64 145.197Z" fill="url(#paint2_linear_2434_1132)"/>
</g>
<path d="M1349.56 123C1349.01 122.97 1348.47 123.027 1347.95 123.169C1340.28 125.175 1333.5 129.667 1328.65 135.942C1323.8 142.217 1321.16 149.923 1321.15 157.858C1321.15 174.516 1332.6 188.53 1348.02 192.512V201.324C1338.1 216.796 1315.89 227.133 1295.11 240.181C1284.5 246.824 1274.28 254.314 1266.62 264.109C1258.27 274.701 1253.82 287.846 1254 301.339C1254 321.555 1259.8 336.214 1266.23 346.144H1438.7C1445.15 336.214 1450.98 321.572 1450.98 301.339C1451.15 287.84 1446.68 274.694 1438.31 264.109C1430.66 254.314 1420.46 246.824 1409.87 240.181C1389.11 227.15 1366.9 216.83 1356.97 201.375V193.698C1364.83 193.683 1372.46 191.079 1378.7 186.286C1384.93 181.493 1389.42 174.778 1391.46 167.178C1393.71 162.789 1388.28 158.502 1384.56 161.721C1381.29 164.425 1377.31 166.14 1373.1 166.664C1368.9 167.189 1364.62 166.501 1360.79 164.682C1356.96 162.864 1353.72 159.989 1351.46 156.395C1349.19 152.8 1348 148.635 1348.02 144.386C1347.86 139.065 1350.15 133.998 1353.06 130.219C1355.6 126.931 1353.18 123.135 1349.56 123ZM1267.43 355.125C1263.88 355.156 1260.48 356.587 1257.97 359.108C1255.46 361.628 1254.04 365.037 1254.02 368.597V386.492C1254.01 387.68 1254.48 388.822 1255.31 389.667C1256.15 390.512 1257.28 390.991 1258.47 391H1446.5C1447.09 391.002 1447.68 390.887 1448.22 390.661C1448.77 390.436 1449.27 390.104 1449.69 389.685C1450.1 389.266 1450.44 388.768 1450.66 388.22C1450.89 387.672 1451 387.085 1451 386.492V368.597C1450.98 365.031 1449.55 361.617 1447.04 359.096C1444.52 356.574 1441.11 355.148 1437.55 355.125H1267.43Z" fill="#EBEBEB"/>
<path fill-rule="evenodd" clip-rule="evenodd" d="M1456.24 399.062C1459.33 404.395 1465.24 408 1472.03 408C1482.01 408 1490.11 400.193 1490.11 390.562C1490.11 388.434 1489.71 386.396 1488.99 384.511C1494.27 387.235 1500.33 388.782 1506.77 388.782C1527.33 388.782 1544 373.008 1544 353.55C1544 334.092 1527.33 318.318 1506.77 318.318C1498.42 318.318 1490.71 320.921 1484.5 325.317C1475.39 302.904 1452.45 287 1425.58 287C1401.52 287 1380.6 299.759 1369.95 318.526C1363.67 313.933 1355.78 311.2 1347.23 311.2C1326.67 311.2 1310 326.974 1310 346.432C1310 365.891 1326.67 381.665 1347.23 381.665C1355.66 381.665 1363.43 379.014 1369.67 374.544C1380.23 393.587 1401.3 406.576 1425.58 406.576C1436.71 406.576 1447.16 403.849 1456.24 399.062Z" fill="url(#paint3_linear_2434_1132)"/>
<path fill-rule="evenodd" clip-rule="evenodd" d="M1558.72 323.107C1560.86 326.629 1564.87 329 1569.47 329C1576.31 329 1581.87 323.733 1581.87 317.235C1581.87 315.915 1581.64 314.647 1581.21 313.462C1584.69 315.189 1588.65 316.165 1592.85 316.165C1606.74 316.165 1618 305.471 1618 292.278C1618 279.086 1606.74 268.391 1592.85 268.391C1587.16 268.391 1581.91 270.187 1577.69 273.213C1571.6 257.89 1556.1 247 1537.94 247C1521.76 247 1507.69 255.643 1500.5 268.364C1496.26 265.251 1490.93 263.4 1485.15 263.4C1471.26 263.4 1460 274.095 1460 287.287C1460 300.479 1471.26 311.174 1485.15 311.174C1490.8 311.174 1496.02 309.403 1500.22 306.414C1507.31 319.413 1521.54 328.287 1537.94 328.287C1545.49 328.287 1552.58 326.406 1558.72 323.107Z" fill="url(#paint4_linear_2434_1132)"/>
<defs>
<linearGradient id="paint0_linear_2434_1132" x1="196.102" y1="123.953" x2="196.102" y2="52.0001" gradientUnits="userSpaceOnUse">
<stop stop-color="white" stop-opacity="0"/>
<stop offset="1" stop-color="white"/>
</linearGradient>
<linearGradient id="paint1_linear_2434_1132" x1="1292.52" y1="208.038" x2="1292.52" y2="102.184" gradientUnits="userSpaceOnUse">
<stop stop-color="white" stop-opacity="0"/>
<stop offset="1" stop-color="white"/>
</linearGradient>
<linearGradient id="paint2_linear_2434_1132" x1="1426.9" y1="125.953" x2="1426.9" y2="54.0001" gradientUnits="userSpaceOnUse">
<stop stop-color="white" stop-opacity="0"/>
<stop offset="1" stop-color="white"/>
</linearGradient>
<linearGradient id="paint3_linear_2434_1132" x1="1427" y1="375.607" x2="1427" y2="287" gradientUnits="userSpaceOnUse">
<stop stop-color="white" stop-opacity="0"/>
<stop offset="1" stop-color="white"/>
</linearGradient>
<linearGradient id="paint4_linear_2434_1132" x1="1539" y1="307.048" x2="1539" y2="247" gradientUnits="userSpaceOnUse">
<stop stop-color="white" stop-opacity="0"/>
<stop offset="1" stop-color="white"/>
</linearGradient>
<clipPath id="clip0_2434_1132">
<rect width="370" height="154" fill="white" transform="translate(1152 54)"/>
</clipPath>
</defs>
</svg>
